!!!OTL: Rundgesang.
!!!OTL-incipit: EI BRUDER N N WARUM SO MISSVERGNUEGT
!!!COM: Studentenweise
!!!ARE: Europa, Mitteleuropa, Deutschland
!!!SCT: F0531
!!!TXL: @@DE
!!!YEM: Copyright 1995, estate of Helmut Schaffrath.
**kern	**text	**text	**text
*ICvox	*	*	*
*clefG2	*	*	*
*M3/4	*	*	*
*k[b-]	*	*	*
*F:	*	*	*
!LO:TX:a:t=Alle.	!	!	!
!LO:TX:a:t=Fröhlich.	!	!	!
!LO:TX:a:t=P:only the highest voice encoded:problem	!	!	!
{8c	1._Ei,	.	.
16c	Bruder	.	.
16c	.	.	.
=1	=1	=1	=1
!LO:TX:a:t=unis.	!	!	!
8cL	N.	.	.
8fJ	.	.	.
8f	N.	.	.
16r	.	.	.
16f	warum	.	.
8e	.	.	.
8f	ſo	.	.
=2	=2	=2	=2
8e	mißver-	.	.
8g	.	.	.
2c}	-gnügt?	.	.
=3	=3	=3	=3
{8c	Sag',	.	.
8e	was	.	.
4.g	dir	.	.
8g	im	.	.
=4	=4	=4	=4
8g	Sin-	.	.
8a	-ne	.	.
2f}	liegt!	.	.
=5	=5	=5	=5
{8.cc/	Willſt	.	.
16b-/	denn	.	.
4a	du,	.	.
4cc/	da	.	.
=6	=6	=6	=6
8.dd/	wir	.	.
16cc/	ſo	.	.
8b-/	fröh-	.	.
8a	-lich	.	.
8cc/	ſin-	.	.
8b-/}	-gen,	.	.
=7	=7	=7	=7
{8g	Trau-	.	.
8a	-rig-	.	.
4b-/	-keit	.	.
4dd/	in	.	.
=8	=8	=8	=8
8.cc/	un-	.	.
16b-/	-ſre	.	.
8a	Mit-	.	.
8g	-te	.	.
8b-/	bringen?	.	.
8a}	.	.	.
=9	=9	=9	=9
{8.f	Saa',	.	.
16f	was	.	.
8dL	dir	.	.
8b-	.	.	.
8aJ	.	.	.
8g	im	.	.
=10	=10	=10	=10
4.cc/	Sin-	.	.
8e	-ne	.	.
4f}	liegt?	.	.
=11	=11	=11	=11
!LO:TX:a:t=Einer.	!	!	!
{8c	Gebt	.	.
8c	mir	.	.
(4c	nur	.	.
8f)	.	.	.
8f	ein	.	.
=12	=12	=12	=12
8e	gut	.	.
8g	Glas	.	.
2c}	Wein(Bier),	.	.
=13	=13	=13	=13
{8c	dieſes	.	.
8e	.	.	.
4g	denk'	.	.
4g	ich	.	.
=14	=14	=14	=14
8g	1._ſoll	.	.
8a	es	.	.
2f}	ſein.	.	.
=15	=15	=15	=15
!LO:TX:a:t=Alle.	!	!	!
{8.cc/	Nun	.	.
16b-/	ſo	.	.
4.a	trink's	.	.
8cc/	auf's	.	.
=16	=16	=16	=16
8.dd/	Wohlſein	.	.
16cc/	.	.	.
8b-/	dei-	.	.
8a	-ner	.	.
8cc/	Schönen,	.	.
8b-/}	.	.	.
=17	=17	=17	=17
{8g	laß'	.	.
16g	ihr	.	.
16a	ʒur	.	.
4b-/	Ehr'	.	.
4dd/	ein	.	.
=18	=18	=18	=18
8.cc/	1._flot-	.	.
16b-/	-tes	.	.
8a	Hoch	.	.
8g	er-	.	.
8b-/	-tö-	.	.
8a}	-nen;	.	.
=19	=19	=19	=19
{8.f	trink,	.	.
16f	bis	.	.
8dL	dich	.	.
8b-	.	.	.
8aJ	.	.	.
8g	der	.	.
=20	=20	=20	=20
4.cc/	Wein	.	.
8e	be-	.	.
4f}	-ſiegt.	.	.
=21	=21	=21	=21
!LO:TX:a:t=Einer.	!	!	!
{8f	Noch	2._Je-	3._Und
8f	nicht	-tʒo	nun
(8dL	bin	bin	bin
8b-	.	.	.
8aJ)	.	.	.
8g	ich	ich	ich
=22	=22	=22	=22
4.cc	1._ganʒ	2._halb	3._ganʒ
8e	vergnügt.	vergnügt.	vergnügt.
!LO:TX:a:t=Von vorn.	!	!	!
4f}	.	.	.
=23	=23	=23	=23
!LO:TX:a:t=Schluß Alle.	!	!	!
{8f	Und	.	.
8f	wir	.	.
8dL	ſind	.	.
8b-	.	.	.
8aJ	.	.	.
8g	mit	.	.
=24	=24	=24	=24
4.cc/	dir	.	.
8e	vergnügt!	.	.
4f	.	.	.
=25	=25	=25	=25
4r	.	.	.
4r}	.	.	.
==	==	==	==
!!!AGN: Studenten -, Trink - Lied, Rundgesang
!!!ONB: ESAC (Essen Associative Code) Database: FINK
!!!AMT: simple triple
!!!AIN: vox
!!!EED: Helmut Schaffrath
!!!EEV: 1.0
!!!GTL: Studentenlieder
!!Text: Studentenlied
!!@@COMMENT:"Das Lied wird 3 Mal gesungen."
!!@@END:
!!!source: Musikalischer Hausschatz der Deutschen. Eine Sammlung von über 1000 Liedern und Gesängen mit Singstimmen und Klavierbegleitung. Leipzig, Litterarisches Verlags-Haus.
!!!page: 339
!!!URL-scan: https://www.digitale-sammlungen.de/en/view/bsb11144622?page=317
!!!ENC: Anna Maria Matuszewska
!!!EEV: 2024/08/02
*-	*-	*-	*-
